X: 1
T: Doreen Goldring
C: Muriel Johnstone
R: strathspey
B: Goldring: Leeds
Z: 1999 John Chambers <jc:trillian.mit.edu>
M: C
L: 1/8
K: G
f \
|| "G"g<G G>B de/f/ g>f | "Am"e<E A>B "D7"c>d e>f \
| "G"g<G G>B de/f/ g>f | "Am"e<E "A7"A>G "D7"(3FED (3def |
| "G"g<G G>B de/f/ g>f | "Am"e<E A>B "D7"c>d e>f \
| "G"g>d "D7"c<a "G"B<g "Am"A<e | "G"d<D "C"E>G "G"B<G G>A ||
|| "G"B<D "C"E>G "Am"c<E "D"F>A | "Bm"d<F "Em"G>B "C"e>d "D7"e>f \
| "G"g<d d<B "Em"B<G G>A | "A7"B<G G>E "D7"A3 c |
|| "G"B<D "C"E>G "Am"c<E "D"F>A | "Bm"d<F "Em"G>B "C"e>d (3efg \
| "G"d>g "D7"c<a "G"B<g "Am"A<e | "G"d<D "C"E>G "G"B<G G2 |]
